img/prop-icon5.svg

<svg width="30" height="30" viewBox="0 0 30 30" fill="none" xmlns="http://www.w3.org/2000/svg">
<g clip-path="url(#clip0_158_3747)">
<path d="M23.4608 17.4959H24.4592C24.7587 17.4959 24.9583 17.2962 24.9583 16.9967C24.9583 16.6972 24.7587 16.4976 24.4592 16.4976H23.4608C23.1613 16.4976 22.9617 16.6972 22.9617 16.9967C22.9617 17.2962 23.1613 17.4959 23.4608 17.4959ZM23.4608 22.4876H24.4592C24.7587 22.4876 24.9583 22.2879 24.9583 21.9884C24.9583 21.6889 24.7587 21.4893 24.4592 21.4893H23.4608C23.1613 21.4893 22.9617 21.6889 22.9617 21.9884C22.9617 22.2879 23.1613 22.4876 23.4608 22.4876ZM23.4608 27.4792H24.4592C24.7587 27.4792 24.9583 27.2796 24.9583 26.9801C24.9583 26.6806 24.7587 26.4809 24.4592 26.4809H23.4608C23.1613 26.4809 22.9617 26.6806 22.9617 26.9801C22.9616 27.2796 23.1613 27.4792 23.4608 27.4792Z" fill="#E0E3E4"/>
<path d="M29.451 11.955H26.9551V7.01328C26.9551 6.71378 26.7554 6.51413 26.4559 6.51413H24.9584V5.01662C24.9584 4.71712 24.7588 4.51748 24.4593 4.51748H22.4626C22.1631 4.51748 21.9634 4.71712 21.9634 5.01662V5.51577H20.4659C20.1664 5.51577 19.9668 5.71542 19.9668 6.01492V11.955H13.4276V11.6555C13.4276 11.0066 12.9285 10.5074 12.2795 10.5074H11.98V10.0083H16.9717C17.5208 10.0083 17.9701 9.55904 17.9701 9.00993V1.02326C17.9701 0.474154 17.5208 0.0249023 16.9717 0.0249023H3.99337C3.44426 0.0249023 2.99501 0.474154 2.99501 1.02326V9.00993C2.99501 9.55904 3.44426 10.0083 3.99337 10.0083H8.98503V10.5074H8.63563C7.98673 10.5074 7.48752 11.0066 7.48752 11.6555V11.955H0.549105C0.249604 11.955 0 12.2046 0 12.5042V14.4509C0 14.7504 0.249604 15 0.549105 15H0.998356V29.4759C0.998356 29.7754 1.198 29.9751 1.49751 29.9751H3.49416C3.79366 29.9751 3.99331 29.7754 3.99331 29.4759V15H18.9684V29.4759C18.9684 29.7754 19.168 29.975 19.4675 29.975H28.4525C28.752 29.975 28.9517 29.7754 28.9517 29.4759V15H29.4009C29.7004 15 29.95 14.7504 29.9999 14.4509V12.5042C30 12.2046 29.7505 11.955 29.451 11.955ZM25.9567 7.51249V11.9551H24.9584V7.51249H25.9567ZM22.9617 5.51577H23.9601V11.955H22.9617V5.51577ZM20.9651 6.51413H21.9634V11.955H20.9651V6.51413ZM16.9717 1.02326V7.01328H3.99337V1.02326H16.9717ZM3.99337 8.01164H16.9718V9.00999H3.99337V8.01164ZM9.98339 10.0083H10.9817V10.5074H9.98339V10.0083ZM8.53578 11.6555C8.53578 11.5557 8.58568 11.5058 8.68553 11.5058H12.3294C12.4293 11.5058 12.4792 11.5557 12.4792 11.6555V11.955H8.53578V11.6555ZM2.99501 28.9767H1.99665V15H2.99501V28.9767ZM27.9534 23.985H19.9667V19.9917H27.9534V23.985H27.9534ZM27.9534 28.9767H19.9667V24.9833H27.9534V28.9767H27.9534ZM27.9534 18.9933H19.9667V15H27.9534V18.9933H27.9534ZM28.9517 14.0017H0.998356V13.0033H28.9517V14.0017Z" fill="#E0E3E4"/>
<path d="M4.99157 3.51918C5.14132 3.51918 5.24117 3.46928 5.34096 3.36943L6.33932 2.37107C6.53897 2.17143 6.53897 1.87193 6.33932 1.67222C6.13967 1.47251 5.84017 1.47257 5.64047 1.67222L4.64217 2.67058C4.44252 2.87022 4.44252 3.16972 4.64217 3.36943C4.74202 3.46928 4.84182 3.51918 4.99157 3.51918ZM5.14132 5.36608C5.24117 5.46594 5.34096 5.51583 5.49071 5.51583C5.64047 5.51583 5.74032 5.46594 5.84011 5.36608L8.33597 2.87022C8.53562 2.67058 8.53562 2.37107 8.33597 2.17137C8.13633 1.97166 7.83683 1.97172 7.63712 2.17137L5.14132 4.66729C4.94167 4.86694 4.94167 5.16644 5.14132 5.36608Z" fill="#E0E3E4"/>
</g>
<defs>
<clipPath id="clip0_158_3747">
<rect width="30" height="30" fill="white"/>
</clipPath>
</defs>
</svg>

<svg width="30" height="30" fill="none" xmlns="http://www.w3.org/2000/svg"><g clip-path="url(#clip0_158_3747)" fill="#E0E3E4"><path d="M23.46 17.496h1c.299 0 .498-.2.498-.5 0-.299-.2-.498-.499-.498h-.998c-.3 0-.5.2-.5.499 0 .3.2.499.5.499zm0 4.992h1c.299 0 .498-.2.498-.5s-.2-.499-.499-.499h-.998c-.3 0-.5.2-.5.5 0 .299.2.499.5.499zm0 4.991h1c.299 0 .498-.2.498-.499 0-.3-.2-.5-.499-.5h-.998c-.3 0-.5.2-.5.5s.2.5.5.5z"/><path d="M29.451 11.955h-2.496V7.013c0-.3-.2-.499-.5-.499h-1.497V5.017c0-.3-.2-.5-.499-.5h-1.996c-.3 0-.5.2-.5.5v.499h-1.497c-.3 0-.5.2-.5.499v5.94h-6.538v-.3c0-.648-.5-1.148-1.149-1.148h-.299v-.499h4.992a1 1 0 00.998-.998V1.023c0-.549-.45-.998-.998-.998H3.993c-.549 0-.998.45-.998.998V9.01c0 .549.45.998.998.998h4.992v.5h-.35a1.13 1.13 0 00-1.147 1.148v.299H.549c-.3 0-.549.25-.549.55v1.946c0 .3.25.549.55.549h.448v14.476c0 .3.2.5.5.5h1.996c.3 0 .5-.2.5-.5V15h14.974v14.476c0 .3.2.499.5.499h8.985c.299 0 .499-.2.499-.5V15h.449c.3 0 .549-.25.599-.55v-1.946c0-.3-.25-.549-.549-.549zm-3.494-4.443v4.443h-.999V7.512h.999zm-2.995-1.996h.998v6.439h-.998v-6.44zm-1.997.998h.998v5.441h-.998v-5.44zm-3.993-5.49v5.99H3.993v-5.99h12.979zM3.993 8.011h12.979v.998H3.993v-.998zm5.99 1.996h.999v.5h-.999v-.5zm-1.447 1.648c0-.1.05-.15.15-.15h3.643c.1 0 .15.05.15.15v.299H8.536v-.3zm-5.541 17.32h-.998V15h.998v13.977zm24.958-4.991h-7.986v-3.993h7.986v3.993zm0 4.992h-7.986v-3.994h7.986v3.994zm0-9.984h-7.986V15h7.986v3.993zm.999-4.991H.998v-.999h27.954v.999z"/><path d="M4.992 3.52c.15 0 .25-.05.349-.15l.998-.999c.2-.2.2-.5 0-.699-.2-.2-.499-.2-.699 0l-.998.999c-.2.2-.2.499 0 .698.1.1.2.15.35.15zm.15 1.846c.1.1.199.15.349.15.15 0 .25-.05.35-.15L8.335 2.87c.2-.2.2-.499 0-.699-.2-.2-.5-.2-.699 0L5.141 4.667c-.2.2-.2.5 0 .7z"/></g><defs><clipPath id="clip0_158_3747"><path fill="#fff" d="M0 0h30v30H0z"/></clipPath></defs></svg>
